X: 1
T: Charlesworth Hornpipe, The
M: 3/2
L: 1/8
R: three-two
K: Bmin
F2 B2 BcdB c2 A2|F2 B2 Bcdf e2 c2|F2 B2 BcdB c2 A2|agfe d2 f2 B4:|
|:agfe f2 d2 e2 c2|fedc e2 a2 A4|agfe f2 d2 e2 c2|cdec d2 f2 B4:|
|:fedf edce d2 B2|fedf edce a4|fedf edce d2 B2|fedf edcd B4:|
|:B4 d4 F4|BFBd cdec d2 B2|B4 d4 f4|1fedf edcd B2 F2:|2fedf edcd Bcde||
|:fdfa gece d2 A2|cAce fdec d4|fdBf ecAe d2 B2|1fdfb fedc Bcde:|2fdfb fedc B4||
